svg/device/dashboard_line.svg

<?xml version="1.0" encoding="UTF-8"?>
<svg width="24px" height="24px" viewBox="0 0 24 24" version="1.1" xmlns="http://www.w3.org/2000/svg" xmlns:xlink="http://www.w3.org/1999/xlink">
    <title>dashboard_line</title>
    <g id="页面-1" stroke="none" stroke-width="1" fill="none" fill-rule="evenodd">
        <g id="Device" transform="translate(-192.000000, -192.000000)">
            <g id="dashboard_line" transform="translate(192.000000, 192.000000)">
                 <path d="M24,0 L24,24 L0,24 L0,0 L24,0 Z M12.5934901,23.257841 L12.5819402,23.2595131 L12.5108777,23.2950439 L12.4918791,23.2987469 L12.4918791,23.2987469 L12.4767152,23.2950439 L12.4056548,23.2595131 C12.3958229,23.2563662 12.3870493,23.2590235 12.3821421,23.2649074 L12.3780323,23.275831 L12.360941,23.7031097 L12.3658947,23.7234994 L12.3769048,23.7357139 L12.4804777,23.8096931 L12.4953491,23.8136134 L12.4953491,23.8136134 L12.5071152,23.8096931 L12.6106902,23.7357139 L12.6232938,23.7196733 L12.6232938,23.7196733 L12.6266527,23.7031097 L12.609561,23.275831 C12.6075724,23.2657013 12.6010112,23.2592993 12.5934901,23.257841 L12.5934901,23.257841 Z M12.8583906,23.1452862 L12.8445485,23.1473072 L12.6598443,23.2396597 L12.6498822,23.2499052 L12.6498822,23.2499052 L12.6471943,23.2611114 L12.6650943,23.6906389 L12.6699349,23.7034178 L12.6699349,23.7034178 L12.678386,23.7104931 L12.8793402,23.8032389 C12.8914285,23.8068999 12.9022333,23.8029875 12.9078286,23.7952264 L12.9118235,23.7811639 L12.8776777,23.1665331 C12.8752882,23.1545897 12.8674102,23.1470016 12.8583906,23.1452862 L12.8583906,23.1452862 Z M12.1430473,23.1473072 C12.1332178,23.1423925 12.1221763,23.1452606 12.1156365,23.1525954 L12.1099173,23.1665331 L12.0757714,23.7811639 C12.0751323,23.7926639 12.0828099,23.8018602 12.0926481,23.8045676 L12.108256,23.8032389 L12.3092106,23.7104931 L12.3186497,23.7024347 L12.3186497,23.7024347 L12.3225043,23.6906389 L12.340401,23.2611114 L12.337245,23.2485176 L12.337245,23.2485176 L12.3277531,23.2396597 L12.1430473,23.1473072 Z" id="MingCute" fill-rule="nonzero"></path>
                <path d="M12,2 C17.5228,2 22,6.47715 22,12 C22,17.5228 17.5228,22 12,22 C6.47715,22 2,17.5228 2,12 C2,6.47715 6.47715,2 12,2 Z M13,4.06189 L13,5 C13,5.55228 12.5523,6 12,6 C11.48715,6 11.0644908,5.61395571 11.0067275,5.11662025 L11,5 L11,4.06189 C7.46744,4.50239595 4.65014359,7.24607202 4.09821001,10.742819 L4.06189,11 L5,11 C5.55228,11 6,11.4477 6,12 C6,12.51285 5.61395571,12.9355092 5.11662025,12.9932725 L5,13 L4.06189,13 C4.55399,16.9463 7.92038,20 12,20 C15.9928,20 19.3024261,17.0748623 19.9028066,13.2506585 L19.9381,13 L19,13 C18.4477,13 18,12.5523 18,12 C18,11.48715 18.386027,11.0644908 18.8833761,11.0067275 L19,11 L19.9381,11 C19.7149,9.21042 18.9007,7.60441 17.6969,6.38349 L15.2725,11.1417 L15.2725,11.1417 L15.1183487,11.4359659 L15.1183487,11.4359659 L14.8075969,12.0461073 C14.438496,12.766793 14.03559,13.49991 13.4849,14.0506 C12.5132,15.0223 10.8972,15.1399 9.87861,14.1213 C8.86,13.1027 8.97764,11.4868 9.94932,10.5151 C10.421388,10.043032 11.0274192,9.6795724 11.6447645,9.35292928 L12.5639368,8.88160297 L12.5639368,8.88160297 L13.4129984,8.43849084 L13.4129984,8.43849084 L17.6162,6.30275 L17.6162,6.30275 C16.3953,5.09914 14.7894,4.28503 13,4.06189 Z M13.1623,10.8376 L12.9523,10.950275 L12.9523,10.950275 L12.7357,11.0631 C12.3336167,11.2716833 11.9139639,11.4892944 11.563663,11.760725 L11.3625,11.9304 L11.2898381,12.0145041 C11.097365,12.27474 11.15519,12.56949 11.2928,12.7071 C11.4305,12.8448 11.725178,12.902553 11.9853986,12.7100646 L12.0706,12.6364 L12.2392398,12.4363366 C12.4563546,12.156094 12.6390843,11.8314588 12.8102435,11.5069051 L12.9368,11.2642 C13.0125,11.1183 13.0869,10.9747 13.1623,10.8376 Z" id="形状" fill="#09244B"></path>
            </g>
        </g>
    </g>
</svg>

<svg xmlns="http://www.w3.org/2000/svg" width="24" height="24"><g fill="none" fill-rule="evenodd"><path d="M24 0v24H0V0h24ZM12.593 23.258l-.011.002-.071.035-.02.004-.014-.004-.071-.035c-.01-.004-.019-.001-.024.005l-.004.01-.017.428.005.02.01.013.104.074.015.004.012-.004.104-.074.012-.016.004-.017-.017-.427c-.002-.01-.009-.017-.017-.018Zm.265-.113-.013.002-.185.093-.01.01-.003.011.018.43.005.012.008.007.201.093c.012.004.023 0 .029-.008l.004-.014-.034-.614c-.003-.012-.01-.02-.02-.022Zm-.715.002a.023.023 0 0 0-.027.006l-.006.014-.034.614c0 .012.007.02.017.024l.015-.002.201-.093.01-.008.004-.011.017-.43-.003-.012-.01-.01-.184-.092Z"/><path fill="#09244B" d="M12 2c5.523 0 10 4.477 10 10s-4.477 10-10 10S2 17.523 2 12 6.477 2 12 2Zm1 2.062V5a1 1 0 0 1-1.993.117L11 5v-.938a8.005 8.005 0 0 0-6.902 6.68L4.062 11H5a1 1 0 0 1 .117 1.993L5 13h-.938a8.001 8.001 0 0 0 15.84.25l.036-.25H19a1 1 0 0 1-.117-1.993L19 11h.938a7.976 7.976 0 0 0-2.241-4.617l-2.424 4.759-.155.294-.31.61c-.37.72-.772 1.454-1.323 2.005-.972.971-2.588 1.089-3.606.07-1.019-1.018-.901-2.634.07-3.606.472-.472 1.078-.835 1.696-1.162l.919-.471.849-.444 4.203-2.135A7.976 7.976 0 0 0 13 4.062Zm.162 6.776-.21.112-.216.113c-.402.209-.822.426-1.172.698l-.201.17-.073.084c-.193.26-.135.554.003.692.138.138.432.196.692.003l.086-.074.168-.2c.217-.28.4-.605.571-.93l.127-.242c.075-.146.15-.29.225-.426Z"/></g></svg>
